icons/heart-16.svg

<svg width="16" height="16" viewBox="0 0 16 16" xmlns="http://www.w3.org/2000/svg">
  <path fill-rule="evenodd" clip-rule="evenodd" d="M4.25 2.5C2.91421 2.5 1.5 3.66421 1.5 5.5C1.5 7.64969 3.08041 9.64375 4.8647 11.1819C5.73533 11.9325 6.60962 12.5358 7.26796 12.952C7.56407 13.1392 7.81492 13.2875 8 13.3934C8.18508 13.2875 8.43593 13.1392 8.73204 12.952C9.39039 12.5358 10.2647 11.9325 11.1353 11.1819C12.9196 9.64375 14.5 7.64969 14.5 5.5C14.5 3.66421 13.0858 2.5 11.75 2.5C10.3768 2.5 9.14121 3.48581 8.72114 4.95604C8.62915 5.27802 8.33486 5.5 8 5.5C7.66514 5.5 7.37085 5.27802 7.27886 4.95604C6.85879 3.48581 5.62319 2.5 4.25 2.5ZM8 14.25C7.65543 14.9162 7.65523 14.9161 7.655 14.9159L7.65269 14.9147L7.64731 14.9119L7.62883 14.9022C7.61313 14.8939 7.59074 14.882 7.5621 14.8665C7.50484 14.8356 7.42254 14.7904 7.3188 14.7317C7.1114 14.6142 6.81771 14.442 6.46642 14.2199C5.76538 13.7767 4.82717 13.13 3.8853 12.3181C2.04459 10.7312 0 8.35031 0 5.5C0 2.83579 2.08579 1 4.25 1C5.79736 1 7.15289 1.80151 8 3.01995C8.84711 1.80151 10.2026 1 11.75 1C13.9142 1 16 2.83579 16 5.5C16 8.35031 13.9554 10.7312 12.1147 12.3181C11.1728 13.13 10.2346 13.7767 9.53358 14.2199C9.18229 14.442 8.8886 14.6142 8.6812 14.7317C8.57746 14.7904 8.49517 14.8356 8.4379 14.8665C8.40926 14.882 8.38687 14.8939 8.37117 14.9022L8.35269 14.9119L8.34731 14.9147L8.34501 14.9159C8.34477 14.9161 8.34457 14.9162 8 14.25ZM8 14.25L8.34501 14.9159C8.12889 15.0277 7.87111 15.0277 7.655 14.9159L8 14.25Z"/>
</svg>

<svg xmlns="http://www.w3.org/2000/svg" width="16" height="16" viewBox="0 0 16 16"><path fill-rule="evenodd" d="M4.25 2.5c-1.336 0-2.75 1.164-2.75 3 0 2.15 1.58 4.144 3.365 5.682A20.565 20.565 0 008 13.393a20.561 20.561 0 003.135-2.211C12.92 9.644 14.5 7.65 14.5 5.5c0-1.836-1.414-3-2.75-3-1.373 0-2.609.986-3.029 2.456a.75.75 0 01-1.442 0C6.859 3.486 5.623 2.5 4.25 2.5zM8 14.25l-.345.666-.002-.001-.006-.003-.018-.01a7.643 7.643 0 01-.31-.17 22.075 22.075 0 01-3.434-2.414C2.045 10.731 0 8.35 0 5.5 0 2.836 2.086 1 4.25 1 5.797 1 7.153 1.802 8 3.02 8.847 1.802 10.203 1 11.75 1 13.914 1 16 2.836 16 5.5c0 2.85-2.045 5.231-3.885 6.818a22.08 22.08 0 01-3.744 2.584l-.018.01-.006.003h-.002L8 14.25zm0 0l.345.666a.752.752 0 01-.69 0L8 14.25z"/></svg>
